!!!COM: Schubert, Franz
!!!CDT: 1797/01/31/-1828/11/19/
!!!CNT: Austrian
!!!OTL: Trio for violin, viola and violon cello
!!!ODT: 1816/09//
**kern
*staff1
*Ivioln
*>[A,A,B,B]
*>norep[A,B]
*>A
*clefG2
*k[b-e-]
*met(C)
*M4/4
*MM160
=1-
([2b-\
.
.
.
8b-\L]
8dd\)
8cc'\
8a'\J
=2
4b-'\
.
4dd'\
.
4ff'\
.
4r
.
=3
(2.bb-\
.
.
.
.
.
8aa\L
8gg\J)
=4
(8gg\L
8ff\)
8ee-'\
8dd'\J
(8dd\L
8cc\)
8b-'\
8a'\J
=5
([2b-\
.
.
.
8b-\L]
8dd\)
8cc'\
8a'\J
=6
4b-'\
.
4dd'\
.
4ff'\
.
4r
.
=7
(2.bb-\
.
.
.
.
.
8aa\L
8gg\J)
=8
(8gg\L
8ff\)
8ee-'\
8dd'\J
(8dd\L
8cc\)
8b-'\
8a'\J
=9
4b-'\
4dd'\
4ff'\
4r
=10
4dd\
(8.ff\L
32een\LL
32ff\JJJ)
4bb-\
4r
=11
12bb-'\L
12ddd'\
12ccc'\J
12bb-'\L
12aa'\
12gg'\J
12ff'\L
12gg'\
12ff'\J
12ee-'\L
12dd'\
12cc'\J
=12
4b-'\
4dd'\
4ff'\
4r
=13
4dd\
(8.ff\L
32een\LL
32ff\JJJ)
4bb-\
4r
=14
12bb-'\L
12ddd'\
12ccc'\J
12bb-'\L
12aa'\
12gg'\J
12ff'\L
12gg'\
12ff'\J
12ee-'\L
12dd'\
12cc'\J
=15
4b-\
.
4r
.
4r
.
*
4b-'\
.
=16
(2.ff\
.
.
.
.
.
4gg\)
.
=17
(2ff\
.
.
.
4ee-\
.
4dd\)
.
=18
2cc\
.
.
.
(4.dd\
.
.
16cc\LL
16dd\JJ)
=19
2ee-\
.
.
.
4r
.
4b-\
.
=20
(2.ff\
.
.
.
.
.
4gg\)
.
=21
(2ff\
.
.
.
4ee-\
.
4dd\)
.
=22
2cc\
.
.
.
(2dd-\
.
.
.
=23
4cc\)
.
4r
.
4r
(4ff\
=24
4een\
4ee-\
4dd\
4dd-\
=25
4cc\)
.
4r
.
4r
(4f/
=26
*
4en/
4e-/
4d/
4d-/
=27
4c/)
4r
2r
=28
(4c/
4f/
4a/
4cc\
=29
4een\
4ff\
4aa\
4ccc\)
=30
(8ccc\L
&(16een\Jk&))
16r
8ee'\L
8ff'\J
8ee'\L
8ff'\
8ee'\
8ff'\J
=31
4een\
4r
([4ddd\
24ddd\LL]
24ccc\
24bb-\
24aa\
24gg\
24ff\JJ)
=32
4een'\
4r
([4dd\
24dd/LL]
24cc/
24b-/
24a/
24g/
24f/JJ)
=33
4en'/
(4g/
4b-\
4cc\)
=34
(4een\
4gg\
4bb-\
4ddd\)
=35
(8ddd\L
16ff\Jk)
16r
*
8ff'\L
8gg'\J
8ff'\L
8gg'\
8ff'\
8gg'\J
=36
4ff\
4r
([4aa\
8aa\L]
32gg\LL
32ff\
32een\
32dd\JJJ)
=37
4cc\
4r
*
([4ff\
32ff/LLL]
32een/
32dd/
32cc/
32b-/
32a/
32g/
32f/JJJ)
=38
(8e-/L
8f/)
8a'/
8cc'/J
8ff'\L
8aa'\
8ccc'\
8fff'\J
=39
(2fff\
.
.
.
4ddd\)
.
4bb-\
.
=40
(8aa\L
8ccc\)
8ddd'\
8ccc'\J
(8ccc\L
8bb-\)
8aa'\
8gg'\J
=41
4ff\
.
4r
.
(ffq/LL
ggq/JJ
4aa'\)
.
ffq/LL
ggq/JJ
4aa'\
.
=42
(4.bb-\
.
.
16ccc\LL
16bb-\JJ
8aa\L
8gg\
8ff\
8een\J)
=43
(4gg\
.
8ff\)
8r
.
.
(4ccc\
.
.
.
4ff\)
.
=44
(2een\
.
.
.
.
8ff\L
8gg\
8aa\
8bb-\J)
=45
(4bb-\
.
8aa\)
8r
(4.ccc\
16ddd\LL
16ccc\JJ)
=46
2bbn\
.
.
(4.bb-\
16ccc\LL
16bb-\JJ)
=47
(2aa\
.
.
.
(8ccc\L)
8bb-\
8aa\
8gg\J)
=48
(8ff\L
8een\)
8dd'\
8cc'\J
(8cc/L
8b-/)
8a'/
8g'/J
=49
8f/L
8ccc\
8ccc\
8ccc\J
.
.
8ccc\L
8ccc\
.
.
8ccc\
8ccc\J
=50
8ccc\L
8ccc\
8ccc\
8ccc\J
.
8ccc\L
8ccc\
8ccc\
8ccc\J
=51
8ccc\L
8ccc\
8ccc\
8ccc\J
.
.
8ccc\L
8ccc\
.
.
8ccc\
8ccc\J
=52
8ccc\L
8ccc\
8ccc\
8ccc\J
.
8ccc\L
8ccc\
8ccc\
8ccc\J
=53
8ccc\L
8ccc\
8ccc\
8ccc\J
(4.ccc\
16ddd\LL
16ccc\JJ)
=54
2bbn\
.
.
(4.bb-\
16ccc\LL
16bb-\JJ)
=55
(2aa\
.
.
.
(8ccc\L)
8bb-\
8aa\
8gg\J)
=56
(8ff\L
8een\)
8dd'\
8cc'\J
(8cc/L
8b-/)
8a'/
8g'/J
=57
12f'/L
12c'/
12f'/J
12a'\L
12cc'\
12ff'\J
12aa\L
12aa\
12aa\J
12ccc#\L
12ccc#\
12ccc#\J
=58
12ddd\L
12ddd\
12ddd\J
12eee-\L
12eee-\
12eee-\J
12ddd\L
12ddd\
12ddd\J
12cccn\L
12ccc\
12ccc\J
=59
8bb-\
8r
4r
bb-q/LLL
cccq/JJJ
4ddd^\
.
8ddd\L
8ddd\J
=60
(8ddd\L
8ccc\J)
4r
.
bb-q/LLL
cccq/JJJ
4ddd^\
.
8ddd'\L
8ddd'\J
=61
(8ddd\L
8ccc\J)
4r
.
(b-q/LLL
ccq/JJJ)
4dd\
.
8dd'\L
8dd'\J
=62
8dd^\L
8cc\J
8ee-'\L
8ee-'\J
(8ee-^\L
8dd\J)
8gg'\L
8gg'\J
=63
(8gg^\L
8ff\J)
8ee-'\L
8ee-'\J
(8ee-^\L
8dd\J)
8gg'\L
8gg'\J
=64
(8gg\L
8ff\J
8gg'\L)
8gg'\J
(8gg\L
8ff\J)
8gg'\L
8gg'\J
=65
(2.gg\
4gg-\)
=66
4ff\
4r
4r
8f'/ 8dd'/L
8f'/ 8dd'/J
=67
(8f/ 8dd/L
8cc/J)
4r
(8cc/L
8en/J)
4r
=68
4f/
8ccc'\L
8ccc'\J
(8ccc\L
8ff\J)
4r
=69
4r
8ddd-'\L
8ddd-'\J
(8ddd-\L
8een\J)
4r
=70
4r
8cc'\L
8cc'\J
8cc/L
8f/J
4r
=71
4r
8dd-'\L
8dd-'\J
(8dd-/L
8en/J)
4r
=72
2.G/ (2.en/
8g/L
8f/J)
=73
2f/
2r
=74:|!|:
*>B
(2.f#/
8a/L
8g/J)
=75
2g/
2r
=76
(2.g/
8b-/L
8a-/J)
=77
(2a-/
4b-\
4cc\)
=78
(2.dd-\
.
8ff\L
8ee-\J)
=79
4cc'\
(4ee-\
4cc\
4b-\)
=80
(2.an/
8cc\L
8b-\J)
=81
(2b-\
4cc\
4dd-\)
=82
(2.ee-\
.
8gg-\L
8ff\J)
=83
4dd-'\
(4ff\
4ee-\
4dd-\)
=84
(2.cc\
.
.
.
.
.
8ee-\L
8dd-\J)
=85
(2dd-\
.
.
.
4ee-\
.
4ff\)
.
=86
(2.gg-\
.
.
.
.
.
8bb-\L
8aa-\J)
=87
2ff\
2r
.
.
=88
(2.ff\
.
8aa-\L
8gg-\J)
=89
2gg-\
2r
.
.
=90
(2.gg-\
.
8bb-\L
8aa-\J)
*
=91
2aa-\
2r
.
.
=92
(4aa-^\
8ccc-\L
8bb-\J)
4bb-\
4r
.
=93
(4bb-^\
8ddd-\L
8cccn\J)
4ccc\
4r
.
=94
(4ccc^\
8eee-\L
8dddn\J)
4ddd\
4r
.
=95
(4ddd^\
8eee-\L
8ddd\J)
4ddd\
4r
.
=96
(4ddd^\
8eee-\L
8ddd\J)
4ddd\
4r
.
=97
(4ccc^\
8ddd\L
8ccc\J)
4ccc\
4r
.
=98
(4bb-^\
8ccc\L
8bb-\J)
4bb-\
4r
.
=99
(4aa\
8bb-\L
8aa\J)
(4gg\
8aa\L
8gg\J)
=100
(4ff#\
8gg\L
8ff#\J)
(4cc#\
8dd\L
8cc#\J)
*
=101
2dd\
.
.
(4cc#\
8dd\L
8cc#\J)
=102
2dd\
.
.
(4cc#\
8dd\L
8cc#\J)
=103
2dd\
.
.
(4c#/
8d/L
8c#/J)
=104
2d/
.
.
(4c#/
8d/L
8c#/J)
=105
(2.d/
.
8f#/L
8a/J
=106
4cc#\
4dd\
4ff#\
4gg#\)
=107
(2.aa\
.
.
.
.
.
4bb-\)
.
=108
(2aa\
.
.
.
2gg\)
.
.
.
=109
([2ff#\
.
.
.
8ff#\L]
8aa\
8ccc\
8eee-\J)
=110
(2ccc#\
.
.
.
2ddd\)
.
.
.
=111
(2.aa\
.
.
.
.
.
8cccn\L
8bb-\J)
=112
2aa\
.
.
.
2gg\
.
.
.
=113
([2a/
.
.
.
8a\L]
8cc\
8ee-\
8gg\J)
=114
(2een\
.
.
.
2ff\)
.
.
.
=115
([2f/
.
.
.
8f/L]
8a/
8cc/
8ee-/J)
=116
(2cc#\
.
.
.
2dd\)
.
.
.
=117
([2a/
.
.
.
8a\L]
8cc\
8ee-\
8gg\J)
=118
(4gg\
.
4een\
.
2ff\)
.
.
.
=119
([2f/
.
.
.
8f/L]
8a/
8cc/
8ee-/J)
=120
(4ee-\
.
4cc#\
.
2dd\)
.
.
.
=121
(4ccn\
2ee-\
.
4bn\)
=122
(4cc\
2ee-\
.
4bn\)
=123
(4cc\
2gg\
.
[4bb-\)
*
=124
(4bb-\]
2aa\
.
[4gg\)
=125
(4gg\]
2ff\
.
4een\)
=126
([2ee-\
8ee-\L]
8dd\
8ff\
8ee-\J)
=127
(2gg\
8ff\L
8ee-\
8dd\
8cc\J)
*
=128
([2b-\
.
.
.
8b-\L]
8dd\)
8cc'\
8a'\J
=129
4b-'\
.
4dd'\
.
4ff'\
.
4r
.
=130
(2.bb-\
.
.
.
.
.
8aa\L
8gg\J)
=131
(8gg\L
8ff\)
8ee-'\
8dd'\J
(8dd\L
8cc\)
8b-'\
8a'\J
=132
([2b-\
.
.
.
8b-\L]
8dd\)
8cc'\
8a'\J
=133
4b-'\
.
4dd'\
.
4ff'\
.
4r
.
=134
(2.bb-\
.
.
.
.
.
8aa\L
8gg\J)
=135
(8gg\L
8ff\)
8ee-'\
8dd'\J
(8dd\L
8cc\)
8b-'\
8a'\J
=136
4b-'\
4dd'\
4ff'\
4r
=137
4dd\
(8.ff\L
32een\LL
32ff\JJJ)
4bb-\
4r
=138
12bb-'\L
12ddd'\
12ccc'\J
12bb-'\L
12aa'\
12gg'\J
12ff'\L
12gg'\
12ff'\J
12ee-'\L
12dd'\
12cc'\J
=139
4b-'\
4dd'\
4ff'\
4r
=140
4dd\
(8.ff\L
32een\LL
32ff\JJJ)
4aa-\
4r
=141
12aa-'\L
12bb-'\
12ccc'\J
12bb-'\L
12aa-'\
12gg'\J
12ff'\L
12gg'\
12aa-'\J
12gg'\L
12ff'\
12ee-'\J
=142
12dd'\L
12ee-'\
12ff'\J
12ee-'\L
12dd'\
12cc'\J
12b-'\L
12cc'\
12b-'\J
12a-'/L
12g'/
12f'/J
=143
4e-/
.
4r
.
4r
.
4ee-\
.
=144
(2.bb-\
.
.
.
.
.
4ccc\)
.
=145
(2bb-\
.
.
.
4aa-\
.
4gg\)
.
=146
2ff\
.
.
.
(4.gg\
.
.
16ff\LL
16gg\JJ)
=147
2aa-\
.
.
.
4r
.
4ee-\
.
=148
(2.bb-\
.
.
.
.
.
4ccc\)
.
=149
(2bb-\
.
.
.
4aa-\
.
4gg\)
.
=150
(2ff\
.
.
.
(2gg-\)
.
.
.
=151
4ff\)
.
4r
.
4r
(4bb-\
=152
4aan\
4aa-\
4gg\
4gg-\
=153
4ff\)
.
4r
.
4r
(4b-/
=154
4an/
4a-/
4g/
4g-/
=155
4f/)
4r
2r
=156
(4B-/
4c#/
4d/
4f/)
=157
(4an/
4b-\
4dd\
4ff\)
=158
(8ff\L
16a\Jk)
16r
8a'/L
8b-'/J
8a'/L
8b-'/
8a'/
8b-'/J
=159
4a/
4r
([4gg\
24gg\LL]
24ff\
24ee-\
24dd\
24cc\
24b-\JJ)
=160
8a/
8r
4r
([4g/
24g/LL]
24f/
24e-/
24d/
24c/
24B-/JJ)
=161
8A/
8r
(4c/
4e-/
4f/)
=162
(4a/
4cc\
4ee-\
4gg\)
=163
(8gg\L
16b-\Jk)
16r
8b-'\L
8cc'\J
8b-'\L
8cc'\
8b-'\
8cc'\J
=164
4b-\
4r
([4dd\
8dd\L]
32cc\LL
32b-\
32a\
32g\JJJ)
=165
8f/
8r
4r
([4b-/
32b-/LLL]
32a/
32g/
32f/
32e-/
32d/
32c/
32B-/JJJ)
=166
(8A-/L
8B-/)
8d'/
8f'/J
(8b-\L
8dd\)
8ff'\
8bb-'\J
=167
(2bb-\
.
.
.
4gg\
.
4ee-\)
.
=168
(8dd\L
8ff\)
8gg'\
8ff'\J
(8ff\L
8ee-\)
8dd'\
8cc'\J
=169
4b-\
.
4r
.
(b-q/LLL
ccq/JJJ
4dd'\)
.
(b-q/LLL
ccq/JJJ
4dd'\)
.
=170
(4.ee-\
.
.
16ff\LL
16ee-\JJ
8dd\L
8cc\
8b-\
8a\J)
=171
(4cc\
.
8b-\)
8r
.
.
(4ff\
.
.
.
4b-\)
.
=172
(2a/
.
.
.
.
8b-\L
8cc\
8dd\
8ee-\J)
=173
(4ee-\
.
8dd\)
8r
(4.ff\
16gg\LL
16ff\JJ)
=174
2een\
.
.
(4.ee-\
16ff\LL
16ee-\JJ)
=175
(2dd\
.
.
.
(8ff\L)
8ee-\
8dd\
8cc\J)
=176
(8b-\L
8dd\)
8gg'\
8ff'\J
(8ff\L
8ee-\)
8dd'\
8cc'\J
=177
8b-\L
8ff\
8ff\
8ff\J
.
.
8ff\L
8ff\
.
.
8ff\
8ff\J
=178
8ff\L
8ff\
8ff\
8ff\J
.
8ff\L
8ff\
8ff\
8ff\J
=179
8ff\L
8ff\
8ff\
8ff\J
.
.
8ff\L
8ff\
.
.
8ff\
8ff\J
=180
8ff\L
8ff\
8ff\
8ff\J
.
8ff\L
8ff\
8ff\
8ff\J
=181
8ff\L
8ff\
8ff\
8ff\J
(4.ff\
16gg\LL
16ff\JJ)
=182
2een\
.
.
(4.ee-\
16ff\LL
16ee-\JJ)
=183
(2dd\
.
.
.
8ff\L
8ee-\
8dd\
8cc\J)
=184
(8b-\L
8dd\)
8gg'\
8ff'\J
(8ff\L
8ee-\)
8dd'\
8cc'\J
=185
12b-/L
12B-'/
.
12d'/J
12f'/L
12b-'/
12dd'/J
12ff'\L
12ff'\
12ff'\J
12ff#\L
12ff#\
12ff#\J
=186
12gg\L
12gg\
12gg\J
12aa-\L
12aa-\
12aa-\J
12gg\L
12gg\
12gg\J
12ffn\L
12ff\
12ff\J
=187
8ee-\
8r
4r
(ee-q/LLL
ffq/JJJ
4gg\)
8gg'\L
8gg'\J
=188
(8gg\L
8ff\J)
4r
.
(ee-q/LLL
ffq/JJJ)
4gg\
.
8gg'\L
8gg'\J
=189
(8gg\L
8ff\J)
4r
.
(ee-q/LLL
ffq/JJJ
4gg\)
.
8gg\L
8gg\J
*
=190
(8gg^\L
8ff\J)
8aa-'\L
8aa-'\J
(8aa-^\L
8gg\J)
8ccc'\L
8ccc'\J
=191
(8ccc^\L
8bb-\J)
8aa-'\L
8aa-'\J
(8aa-^\L
8gg\J)
8ccc'\L
8ccc'\J
=192
(8ccc^\L
8bb-\J)
8ccc'\L
8ccc'\J
(8ccc^\L
8bb-\J)
8ccc'\L
8ccc'\J
=193
(2.ccc\
4ccc-\)
=194
4bb-\
4r
4r
8b-'\ 8gg'\L
8b-'\ 8gg'\J
=195
8b-\ (8gg\L
8ff\J)
4r
(8ff\L
8a\J)
4r
*
=196
4b-\
8ff'\L
8ff'\J
(8ff\L
8b-\J)
4r
=197
4r
8gg-'\L
8gg-'\J
(8gg-\L
8an\J)
4r
=198
4r
8ff'\L
8ff'\J
(8ff\L
8b-\J)
4r
=199
4r
8gg-'\L
8gg-'\J
(8gg-\L
8an\J)
4r
=200
2.c/ (2.a/
8cc\L
8b-\J)
=201
2b-\
2r
=
*-
!!!ENC: Craig Stuart Sapp
!!!END: 2005/08/03/
